X: 24089
T: Long Morris
R: hornpipe
M: 4/4
K: Gmajor
g3 a g3 f/e/|de fg a3 f|g2 d2 de dc|B2 G2 G4|
g3 a g3 f/e/|de fg a3 f|g2 d2 de dc|B2 G2 G2 A/B/ z|
c3 e e3 d/c/|B2 d2 d3 B|c2 e2 e2 dc|B2 G2 G2 AB|
c3 e e3 d/c/|B2 d2 d3 f|g2 g2 a2 gf|g4 g4|

